workspaces/osm/styles/symbols/excrement_bags.svg

<svg xmlns="http://www.w3.org/2000/svg" width="14" height="14" viewBox="0 0 14 14">
  <path d="M 0,0 C 0,1 0,2 0,3 H 1 V 1 h 12 v 2 h 1 V 0 C 9.3333333,0 4.6666667,0 0,0 Z m 2,2 v 10 l -1,2 c 4,0 8,0 12,0 L 12,12 V 2 C 8.6666667,2 5.3333333,2 2,2 Z m 1,1 h 8 V 4 H 3 Z m 0,2 h 8 c 0,2.5 0,5 0,7.5 0,0.277 -0.223,0.5 -0.5,0.5 h -7 C 3.223,13 3,12.777 3,12.5 3,10 3,7.5 3,5 Z M 7,6 C 7,7 6.7426357,7.5622251 6,8 5.4460001,8 5,8.4460001 5,9 5,9.5539999 5.4460001,10 6,10 H 5 c -0.554,0 -1,0.446 -1,1 0,0.554 0.446,1 1,1 h 4 c 0.554,0 1,-0.446 1,-1 0,-0.554 -0.446,-1 -1,-1 H 8 C 8.5539999,10 9,9.5539999 9,9 9,8.4460001 8.5539999,8 8,8 8.000334,7 7.7168863,6.4764131 7,6 Z"/>
</svg>

<svg width="14" height="14" version="1.1" viewBox="0 0 14 14" xmlns="http://www.w3.org/2000/svg"><path d="m0 0v3h1v-2h12v2h1v-3h-14zm2 2v10c-0.33333 0.66667-0.66667 1.3333-1 2h12c-0.33333-0.66667-0.66667-1.3333-1-2v-10h-10zm1 1h8v1h-8v-1zm0 2h8c-0.0017 2.5171 0.0034 5.0343-0.0026 7.5513-0.02109 0.31476-0.34674 0.49244-0.63602 0.44874-2.3042-0.0017-4.6086 0.0034-6.9127-0.0026-0.31474-0.021066-0.49241-0.34671-0.44871-0.63599v-7.3614zm4 1c0.013242 0.65123-0.13638 1.3719-0.68656 1.7845-0.23698 0.29301-0.64276 0.17497-0.91249 0.41368-0.5133 0.3563-0.53319 1.1935-0.037752 1.574 0.11105 0.16137 0.60851 0.23928 0.57741 0.2278-0.39676 0.01281-0.79839-0.030168-1.1911 0.031377-0.59468 0.13166-0.932 0.86378-0.65119 1.4029 0.18107 0.40164 0.63408 0.60911 1.0601 0.56571 1.3147-0.0034 2.6297 0.0068 3.9441-0.0051 0.60931-0.040706 1.053-0.71706 0.85266-1.2929-0.13216-0.46497-0.62322-0.75341-1.0938-0.70199h-0.86141c0.61155 0.022093 1.1234-0.60776 0.97975-1.202-0.083933-0.4541-0.51804-0.80761-0.97975-0.79797 0.01708-0.65097-0.1598-1.3535-0.69513-1.7716-0.096491-0.082704-0.19907-0.15809-0.30487-0.22841z"/></svg>
